X: 2
P: Polska (79)
O: Klarlvsdalen
Z: John Chambers <jc@trillian.mit.edu>
N: Polskan spelades av sglingen, den frut omnmnde spelmannen frn Lysvik.
R: polska
M: 3/4
%%slurgraces 1
L: 1/8
K: D
|: f>(g (3f)ef d2 | uf>(g (3f)ef g(b | e)>(f e)>(d c)>B |1,3 (3ABc (MdMA) FD :|2,4 (3ABc (MdMA) FD :|
|: A2 (3DFA (3DFA | {d}uB2 (3DGB (3DGB | {d}c2 (3Ace (3Ace |1,3 ud>c df A2 :|2,4 udz vd2 z2 :|
